X:203
T:Miss Thornton's (reel) 
B:CRE2.172 (InÃÂÃÂÃÂÃÂ­on UÃÂÃÂÃÂÃÂ­ DhroighneÃÂÃÂÃÂÃÂ¡in)
F:file ID: cre.2/203miss_t
R:reel % A-B-A
M:C
Q:180
K:G
D|G2Bd gdBd|c2AB cedc|B2 A2 GBdg|ecAF GDB,D|
G2Bd gdBd|c2AB cedc|B2 A2 GBdg|ecAF G2 (3Bcd|
gbaf gdBd|c2AB cedc|B2 A2 GBdg|ecAF GDB,D|
G2Bd gdBd|c2AB cedc|B2 A2 GBdg|egfa g3||
a|bgg2 bgag|egdg egdg|bgg2 bgag|fdfa g3a|
bgg2 bgag|egdg egdg|bgaf gfed|
[1 (3Bcd ef g3:|2 (3Bcd ef g2ef|g2gf g4|]

%%%

